X:57
T:High road to Galloway 
M:2/4
L:1/8
K:G
df ed | cA Ac | BG GB | cA A2 | 
df ed | cA Ac | BG AF | D2 D2 :|
|:A2AG | AB c2 | GA GF | EF GE |
A2AG | AB c2 | BG AF | D2 D2 :|
%%vskip 1.5cm
